X: 04046
T: JUSTINE'S JIG
C: Bob McQuillen 2 Jan 80
B: Bob's Note Book 04 #46
R: jig
Z: 2020 John Chambers <jc:trillian.mit.edu>
M: 6/8
L: 1/8
K: Em
ba \
| ged ege | dBG AFD | E2B, EAB | ded dba |\
| ged ege | dBG ABA | Bde  ged | Bee e  :|
|: Bd \
| egf egf | edB ABd | edB ABG | F2D DB,D |\
| EGF EFG | AcB ABd | edB ABA | GEE E   :|
%%begintext align
%% Justine Paul is a real fine string
%% bass player from Concord, N.H. It's
%% always so nice when she joins us
%% at a dance.
%%endtext

%%sep 1 1 500

%%sep 1 1 500

